X:202
T:The Broken Fiddle Breakdown
R:reel
C:Bruce Osborne
Z:abc by bosborne@kos.net
M:2/4
L:1/8
K:Amaj
E/D/|C/E/A,/C/ E/A,/C/E/|D/F/A/F/ B/F/A/F/|E/G/B/E/ c/E/B/E/|A/c/B/A/ G/F/E/D/|\
C/E/A,/C/ E/A,/C/E/|D/F/A/F/ B/F/A/F/|E/G/B/E/ c/E/B/E/|A/c/B/G/ A:|
|:c/d/|e/A/A/A/ f/A/A/A/|g/A/A/A/ a/A/A/A/|E/E/B/E/ E/c/E/E/|d/E/c/E/ Bc/d/|\
e/A/A/A/ f/A/A/A/|g/A/A/A/ a/A/A/A/|E/E/B/E/ E/c/E/E/|B/A/G/B/ A:|
